outputs/icons/image/crop_round.svg

<svg xmlns="http://www.w3.org/2000/svg" width="1200" height="1200" fill="none"><g clip-path="url(#a)"><path fill="#000" d="M850 750h100V350c0-55-45-100-100-100H450v100h350c27.5 0 50 22.5 50 50zM400 850c-27.5 0-50-22.5-50-50V100c0-27.5-22.5-50-50-50s-50 22.5-50 50v150H100c-27.5 0-50 22.5-50 50s22.5 50 50 50h150v500c0 55 45 100 100 100h500v150c0 27.5 22.5 50 50 50s50-22.5 50-50V950h150c27.5 0 50-22.5 50-50s-22.5-50-50-50z"/></g><defs><clipPath id="a"><path fill="#fff" d="M0 0h1200v1200H0z"/></clipPath></defs></svg>

<svg width="1200" height="1200" viewBox="0 0 1200 1200" fill="none" xmlns="http://www.w3.org/2000/svg"><g clip-path="url(#clip0_238_2762)"><path d="M850 750H950V350C950 295 905 250 850 250H450V350H800C827.5 350 850 372.5 850 400V750ZM400 850C372.5 850 350 827.5 350 800V100C350 72.5 327.5 50 300 50C272.5 50 250 72.5 250 100V250H100C72.5 250 50 272.5 50 300C50 327.5 72.5 350 100 350H250V850C250 905 295 950 350 950H850V1100C850 1127.5 872.5 1150 900 1150C927.5 1150 950 1127.5 950 1100V950H1100C1127.5 950 1150 927.5 1150 900C1150 872.5 1127.5 850 1100 850H400Z" fill="black"/></g><defs><clipPath id="clip0_238_2762"><path width="24" fill="white" d="M0 0H1200V1200H0V0z"/></clipPath></defs></svg>
